X: 8
T: James Byrne's
Z: Jeremy
S: https://thesession.org/tunes/266#setting46195
R: slip jig
M: 9/8
L: 1/8
K: Dmaj
|:A|dfa afd dcd|Bcd efd cBA|dfa afd dcd|Bcd ecA d2:|
|:f|ecA AcA ecA|d2e fdf agf|ecA AcA ecA|d2e fdc d2:|

